components/2.0/icon/icons/icon-location-22px.svg

<svg width="22" height="22" xmlns="http://www.w3.org/2000/svg"><path d="M11 2C7 2 4 5 4 9s4.5 7.5 7 11c2.5-3.5 7-7 7-11s-3-7-7-7zm0 11c-2.2 0-4-1.8-4-4s1.8-4 4-4 4 1.8 4 4-1.8 4-4 4z" fill="#3D4752" fill-rule="evenodd"/></svg>

<?xml version="1.0" encoding="UTF-8" standalone="no"?>
<svg width="22px" height="22px" viewBox="0 0 22 22" version="1.1" xmlns="http://www.w3.org/2000/svg" xmlns:xlink="http://www.w3.org/1999/xlink" xmlns:sketch="http://www.bohemiancoding.com/sketch/ns">
    <!-- Generator: Sketch 3.4.4 (17249) - http://www.bohemiancoding.com/sketch -->
    <title>icon-location-22px</title>
    <desc>Created with Sketch.</desc>
    <defs></defs>
    <g id="22px" stroke="none" stroke-width="1" fill="none" fill-rule="evenodd" sketch:type="MSPage">
        <g id="icon-location-22px" sketch:type="MSArtboardGroup" fill="#3D4752">
            <path d="M11,2 C7.1,2 4,5.1 4,9 C4,12.9 8.5,16.5 11,20 C13.5,16.5 18,12.9 18,9 C18,5.1 14.9,2 11,2 L11,2 Z M11,13 C8.8,13 7,11.2 7,9 C7,6.8 8.8,5 11,5 C13.2,5 15,6.8 15,9 C15,11.2 13.2,13 11,13 L11,13 Z" id="Shape" sketch:type="MSShapeGroup"></path>
        </g>
    </g>
</svg>
